X:006 
T:Atlantic Wave (reel), The
F:file ID: cre.5/006atl_w
B:CRE5.166 (Tonn an Atlantaigh)
S:Denis Murphy
N:This may be a Larry Redican composition. Or maybe
Martin Muhaire. Or . . .
%%Q:180
M:C
R:reel
K:G
(3DEF|G2BG dGBG|cBcd efge|d2BG dGBG|(3FED AF BcAF|
GABG dGBG|cBcd efge|dgfb ecAF|GBAF G2:|
dB|g2gf ed^ce|dfab afdf|bagf gdBG|FDAF BcAF|
G2BG dGBG|cBcd efge|dgfb ecAF|GBAF G2:|

%%%

